X:17733
T:Tribute to Coleman, A
T:In Memory of Coleman
R:Reel
C:Ed Reavy
S:as played by fiddler Martin Dowling
N:transcribed by Alan Ng. Slightly different from George Keith's abc taken directly from Reavy book, where it's titled "In Memory of Coleman."
Z: id:ng-reels-11 transcribed on Aug. 23, 1996 from Aug. 17 tape of Martin Dowling by Alan Ng agng@students.wisc.edu
M:C|
K:Gm
E:10
\medskip
F|DGBd {d}cAGF|DF ~F2 GFDF|GABc dfga|\
bg af dg{a}ga|bg af {a}gfdc|*
E:12
(3Bcd BG FDCD|FGBd ~c3 c|dBcA BGGF|\
DGBd {d}cAGF|DF ~F2 GFDF|*
E:11
GABc dfga|bgaf ~g2 ga|bg af {a}gfdc|\
(3Bcd BG {G}FDCD|FGBd c2Bc|*
E:10
dBcA BGGA||B2 fB gBfB|{d}Bdfd {d}cAFA|\
B2 fB gBfB|FGAc BGGA|B2 fB DBfB|\
DBfB {d}cAFA|GABc dbag|fd cA BGGA|\
B2 fB gafd|Bdfd {d}cAFA|\
B2 ~B2 fB ~B2|*
E:11
{d}BAFG AGGA|B2 fB FBfB|\
DBfB {d}cAFA|GABc dbag|fdcA BGG|]**
\bigskip
